!!!COM: Beethoven, Ludwig van
!!!CDT: 1770///-1827///
!!!OTL: Piano Sonata no. 15 in D major
!!!OTP: pastoral
!!!OPS: 28
!!!OMV: 4
!!!OMD: Rondo: Allegro non troppo
**kern	**kern	**dynam
*staff2	*staff1	*staff1/2
*Ipiano	*Ipiano	*Ipiano
*clefF4	*clefG2	*
*k[f#c#]	*k[f#c#]	*
*D:	*D:	*
*M6/8	*M6/8	*
*MM124	*MM124	*
(>8AA	8r	.
=1	=1	=1
4DD	2.r	.
8AA	.	.
4DD	.	.
8BB	.	.
=2	=2	=2
4DD	4r	.
8C#	8r	.
4DD	4r	.
8D/)	[8aa/	p
=3	=3	=3
*	*^	*
(>4DD	(8aaL]	4.a	.
.	8gg	.	.
8FF#	8ff#J	.	.
4DD	8eeL	4.b	.
.	8ff#	.	.
8GG	8ddJ)	.	.
=4	=4	=4	=4
4DD	8bL	4g	.
.	8ee	.	.
8AA	8cc#'J	8g	.
4DD	8dd'	8f#	.
.	8r	8r	.
8AA)	8r	8r	.
*	*v	*v	*
=5	=5	=5
(4DD	2.r	.
8AA	.	.
4DD	.	.
8BB	.	.
=6	=6	=6
4DD	4r	.
8C#	8r	.
4DD	4r	.
8D)	[8aa/	.
=7	=7	=7
*	*^	*
(>4DD	(8aaL]	4.a	.
.	8gg	.	.
8FF#	8ff#J	.	.
4DD	8eeL	4.b	.
.	8ff#	.	.
8GG	8ddJ)	.	.
=8	=8	=8	=8
4DD	(8bL	4g	.
.	8ee)	.	.
8AA	8cc#'J	8g	.
4DD	8dd'	8f#	.
.	8r	8r	.
8D/	[8dd	8f#	.
=9	=9	=9	=9
4DD	(4dd]	[4.g	<
8E	8cc#	.	[ >
4DD	8aa')	8g]	.
.	8raa	8rg	]
8AA)	8cc#	8g	.
=10	=10	=10	=10
(4DD	(4ee	[4.f#	<
8D	8dd	.	[ >
4DD	8aa')	8f#]	.
.	8raa	8re	>
8AA	[8dd	8f#	.
=11	=11	=11	=11
4DD	(4dd]	[4.g	<
8E	8cc#	.	[ >
4DD	8aa')	8g]	.
.	8raa	8rg	>
8AA)	(8cc#	8g	.
=12	=12	=12	=12
(4DD	4dd)	4f#	.
8D	8r	8r	.
4DD	4r	4r	.
8AA	[8dd	8f#	.
=13	=13	=13	=13
4DD	(8.ddL]	[4.g	<
.	16cc#L	.	.
8E	16b#	.	[ >
.	16cc#JJ	.	.
4DD	8aa')	8g]	]
.	8rg	8raa	.
8AA	8cc#	8g	.
=14	=14	=14	=14
4DD	(8.eeL	[4.f#	<
.	16ddL	.	.
8D	16cc#	.	[ >
.	16ddJJ	.	.
4DD	8aa')	8f#]	.
.	8re	8raa	]
8AA)	[8dd	8f#	.
=15	=15	=15	=15
(>4DD	(8.ddL]	[4.g	<
.	16cc#L	.	.
8E	16b#	.	[ >
.	16cc#JJ	.	.
4DD	8aa')	8g]	.
.	8rg	8raa	]
8AA	8cc#	8g	.
=16	=16	=16	=16
4DD	4dd	4f#	.
8D	8r	8r	.
4AA	4r	4r	.
!	!LO:TX:i:a:t=molto legato	!	!
8FF#)	(16dLL	8ryy	.
.	16AJJ)	.	.
*	*v	*v	*
=17	=17	=17
(<16DDLL<	8r	.
16FF#	.	.
16AA	(>16F#<LL	.
16DJJ)	16A<	.
8r	16d	.
.	16f#JJ)	.
(16C#LL	8r	.
16E	.	.
16A	(16eLL	.
16c#JJ)	16a	.
8r	16cc#	.
.	16eeJJ)	.
=18	=18	=18
(16BBLL	8r	.
16D	.	.
16F#	(16dLL	.
16BJJ)	16f#	.
8r	16b	.
.	16ddJJ)	.
16ALL	8r	.
16c#	.	.
16f#	(16cc#LL	.
16aJJ	16ff#	.
8r	16aa	.
.	16ccc#JJ)	.
=19	=19	=19
(16GGLL<	8r	.
16BB	.	.
16D	(16BLL	.
16GJJ)	16d	.
8r	16g	.
.	16bJJ)	.
(16F#LL	8r	.
16A	.	.
16e	(16aLL	.
16f#JJ)	16dd	.
8r	16ff#	.
.	16aaJJ)	.
=20	=20	=20
8E' 8e'L	16cc#' 16gg'LL	.
.	16a	.
8E' 8e'	16cc#' 16gg'	.
.	16a	.
8D' 8d'J	16dd' 16ff#'	.
.	16aJJ	.
4AA' 4A'	16cc# (16eeLL	.
.	16dd	.
.	16cc#	.
.	16b	.
8r	16a	.
.	16gJJ)	.
=21	=21	=21
(16DDLL	8r	p
16FF#	.	.
16AA	(16F#LL	.
16DJJ)	16A	.
8r	16d	.
.	16f#JJ)	.
(16C#LL	8r	.
16E	.	.
!	!LO:TX:i:t=cresc.	!
16A	(16eLL	<
16c#JJ)	16a	.
8r	16cc#	.
.	16eeJJ)	.
=22	=22	=22
(16BBLL	8r	.
16D	.	.
16F#	(16dLL	.
16BJJ)	16f#	.
8r	16b	.
.	16ddJJ)	.
(16ALL	8r	.
16c#	.	.
16f#	(16cc#LL	.
16aJJ)	16ff#	.
8r	16aa	.
.	16ccc#JJ)	.
=23	=23	=23
!	!LO:TX:i:t=sempre cresc	!
(16GG#LL<	8r	.
16BB	.	.
16E	(16BLL	.
16G#JJ)	16e	.
8r	16g#	.
.	16bJJ)	.
(16F#LL	8r	.
16A	.	.
16d#	(16aLL	.
16f#JJ)	16dd#	.
8r	16ff#	.
.	16aaJJ)	.
=24	=24	=24
(16EELL	8r	.
16GG#	.	.
16BB	(16G#LL	.
16EJJ)	16B	.
8r	16e	.
.	16g#JJ)	.
(16ALL	8r	.
16c#	.	.
16e	(16cc#LL	.
16aJJ)	16ee	.
8r	16aa	.
.	16ccc#JJ)	.
=25	=25	=25
(16GG#LL<	8r	.
16BB	.	.
16E	(16BLL	.
16G#JJ)	16e	.
8r	16g#	.
.	16bJJ)	.
(16F#LL	8r	.
16A	.	.
16d#	(16aLL	.
16f#JJ)	16dd#	.
8r	16ff#	.
.	16aaJJ)	.
=26	=26	=26
(16EELL	8r	f
16GG#	.	.
16BB	(16g#LL	.
16EJJ)	16b	.
8r	16ee	.
.	16gg#JJ)	.
(16EELL	8r	.
16GG#	.	.
16BB	(16eLL	.
16EJJ)	16g#	.
8r	16b	.
.	16eeJJ)	.
=27	=27	=27
(16EELL	8r	.
16GG#	.	.
16BB	(16BLL	.
16EJJ)	16e	.
8r	16g#	.
.	16bJJ)	.
(16EELL	8r	.
16GG#	.	.
16BB	(16G#LL	.
16EJJ)	16B	.
8r	16e	.
.	16g#JJ)	.
=28	=28	=28
[4.EEz	4r	.
.	8r	.
4EE]	4r	.
8r	(>8ccc#/	p
=29	=29	=29
*	*^	*
2.r	4aa	4r	.
.	8eee	8r	.
.	4ccc#/)	4ryy	.
!	!LO:TX:i:t=m.g.	!	!
.	(8aa	8cc#	p
=30	=30	=30	=30
4r	4ee	4a	.
8r	8ccc#	8ee	.
4r	4aa	4cc#	.
8c#	[8ee)	8a	p
=31	=31	=31	=31
(4A	4.ee_	(4cc#	.
8e	.	8a	.
4c#)	4ee]	4e)	.
(8A	[8ee	8a 8cc#	.
=32	=32	=32	=32
4e	4.ee_	(4g# 4b	.
8E	.	8b 8dd	.
4A')	8ee']	8a 8cc#)	.
.	16rccc	8rg	.
.	(16ccc#LL	.	.
8r	16bb#	8rg	.
.	16ccc#JJ)	.	.
=33	=33	=33	=33
2.r	8aa'	4r	.
.	16rccc	.	.
.	(16eeeLL	.	.
.	16ddd#	8r	.
.	16eeeJJ)	.	.
.	8ccc#'	8r	.
.	8raa	16rb	.
.	.	(16cc#LL	.
.	8aa'	16b#	.
.	.	16cc#JJ)	.
=34	=34	=34	=34
4r	8ee'	8a'	.
.	8raa	16rb	.
.	.	(16eeLL	.
8r	8ccc#'	16dd#	.
.	.	16eeJJ)	.
8r	8aa'	8cc#'	.
16r	8r	8r	.
(16c#LL	.	.	.
16B#	8ee'	8a	.
16c#JJ)	.	.	.
=35	=35	=35	=35
8A'	[4.ee	(4cc#	.
16r	.	.	.
(16eLL	.	.	.
16d#	.	8a	.
16eJJ)	.	.	.
8c#'	4ee]	4e)	.
8r	.	.	.
(8A	[8ee	(8a 8cc#	.
=36	=36	=36	=36
4e	4.ee_	4g# 4b	.
8E	.	8b 8dd	.
4A)	4ee]	4a) 4cc#	.
(>8C#	(8aa	8cc# 8ee	sf
=37	=37	=37	=37
4E	4gg#	4b 4ee	.
8EE)	8bb	8dd 8ee	.
4AA'	4aa')	4cc# 4ee	.
(8c#	[8ee	(8a 8cc#	.
=38	=38	=38	=38
4e	4.ee_	4g# 4b	.
8E	.	8b 8dd	.
4A')	4ee']	4a 4cc#)	.
(8C#	(8aa	8cc# 8ee	sf
=39	=39	=39	=39
4E	4gg#	4b 4ee	.
8EE	8bb	8dd 8ee	.
4AA')	4aa')	4cc# 4ee	.
(8C#	(8aa	8cc# 8ee	sf
=40	=40	=40	=40
4E	4gg#	4b 4ee	.
8EE	8bb	8dd 8ee	.
4AA')	4aa')	4cc# 4ee	.
8FF# 8F#	8aa#	8cc# 8ee	sf
=41	=41	=41	=41
2.DD 2.D	2.bb	2.dd 2.ff#	f
=42	=42	=42	=42
2.EE 2.E	2.gg#t	2.dd	sf
.	(<16ff#qLL	.	.
.	16gg#qJJ)	.	.
*	*v	*v	*
=43	=43	=43
*^	*	*
[2.AA	4.AAA 4.AA	16aLL	sf
.	.	16cc#	.
.	.	16ee	.
.	.	16aa	.
.	.	16a	.
.	.	16aaJJ	.
.	8GG#L	16g#LL	.
.	.	16gg#	.
.	8FF#	16f#	.
.	.	16ff#	.
.	8EEJ	16e	.
.	.	16eeJJ	.
=44	=44	=44	=44
2.AA]	8FF#L	16f#LL	.
.	.	16ff#	.
.	8EE	16e	.
.	.	16ee	.
.	8DDJ	16d	.
.	.	16ddJJ	.
.	8CC#L	16c#LL	.
.	.	16cc#	.
.	8DD	16d	.
.	.	16dd	.
.	8EEJ	16e	.
.	.	16eeJJ	.
=45	=45	=45	=45
[2.AA	4.AAA 4.AA	16aLL	sf
.	.	16cc#	.
.	.	16ee	.
.	.	16aa	.
.	.	16a	.
.	.	16aaJJ	.
.	8GG#L	16g#LL	.
.	.	16gg#	.
.	8FF#	16f#	.
.	.	16ff#	.
.	8EEJ	16e	.
.	.	16eeJJ	.
=46	=46	=46	=46
2.AA]	8FF#L	16f#LL	.
.	.	16ff#	.
.	8EE	16e	.
.	.	16ee	.
.	8DDJ	16d	.
.	.	16ddJJ	.
.	8CC#L	16c#LL	.
.	.	16cc#	.
.	8DD	16d	.
.	.	16dd	.
.	8EEJ	16e	.
.	.	16eeJJ	.
=47	=47	=47	=47
[2.AA	4.AAA 4.AA	16aLL	sf
.	.	16cc#	.
.	.	16ee	.
.	.	16aa	.
.	.	16a	.
.	.	16aaJJ	.
.	8GGnL	16gnLL	.
.	.	16ggn	.
.	8FF#	16f#	.
.	.	16ff#	.
.	8EEJ	16e	.
.	.	16eeJJ	.
=48	=48	=48	=48
4.AA_	8DDL	16dLL	.
.	.	16dd	.
.	8CC#	16c#	.
.	.	16cc#	.
.	8BBBJ	16B	.
.	.	16bJJ	.
8AAA 8AAL]	4.ryy	16ALL	.
.	.	16a	.
8GGG 8GG	.	16G	.
.	.	16g	.
8FFF# 8FF#J	.	16F#	.
.	.	16f#JJ	.
*v	*v	*	*
=49	=49	=49
4GGG 4GG	4G 4g	f
8r	8r	.
4r	4r	.
8r	8r	.
=50	=50	=50
4GGG# 4GG#	4G# 4g#	f
8r	8r	.
4r	4r	.
8r	8r	.
=51	=51	=51
4r	2.r	.
8r	.	.
4r	.	.
(>8AA	.	p
=52	=52	=52
4DD	2.r	.
8AA	.	.
4DD	.	.
8BB	.	.
=53	=53	=53
4DD	4r	.
8C#	8r	.
4DD	4r	.
8D/)	[>8aa/	p
=54	=54	=54
*	*^	*
(>4DD	(8aaL]	4.a	.
.	8gg	.	.
8FF#	8ff#J	.	.
4DD	8eeL	4.b	.
.	8ff#	.	.
8GG	8ddJ)	.	.
=55	=55	=55	=55
4DD	(8bL	4g	.
.	8ee)	.	.
8AA	8cc#'J	8g	.
4DD	4dd'	4f#	.
8AA	8r	8r	.
*	*v	*v	*
=56	=56	=56
4DD	8r	.
.	16r	.
.	(16ddLL	.
8AA	16ff#	.
.	16f#JJ)	.
4DD	(4a	.
8BB	8g)	.
=57	=57	=57
4DD	8r	.
.	16r	.
.	(16ddd#LL	.
8C#	16eee	.
.	16eeJJ)	.
4DD	4gg	.
8D/)	8ff#	.
=58	=58	=58
*	*^	*
(4DD	(8aaL	4.a	.
.	8gg	.	.
8FF#	8ff#J	.	.
4DD	8eeL	4.b	.
.	8ff#	.	.
8GG	8ddJ)	.	.
=59	=59	=59	=59
4DD	(8bL	4g	.
.	8ee)	.	.
8AA	8cc#'J	8g	.
4DD	8dd	8f#	.
.	8raa	8rg	.
8D)	[8dd	8f#	.
=60	=60	=60	=60
(>4DD	(4dd]	[4.g	<
8E	8cc#	.	[ >
4DD	8aa')	8g]	]
.	8raa	8rg	.
8AA	(8cc#	8g	.
=61	=61	=61	=61
4DD	4ee	[4.f#	<
8D/	8dd	.	[ >
4DD	8aa')	8f#]	]
.	8raa	8re	.
8AA)	[8dd	8f#	.
=62	=62	=62	=62
(4DD	(4dd]	[4.g	<
8E	8cc#	.	[ >
4DD	8aa')	8g]	]
.	8raa	8rg	.
8AA	8cc#'	8g	.
=63	=63	=63	=63
4DD	4dd'	4f#	.
8D/	8r	8r	.
4DD	4r	4r	.
8AA)	[8dd	8f#	.
=64	=64	=64	=64
(4DD	(8.ddL]	[4.g	<
.	16cc#L	.	.
8E	16b#	.	[ >
.	16cc#JJ	.	.
4DD	8aa')	8g]	]
.	8raa	8rg	.
8AA)	8cc#	8g	.
=65	=65	=65	=65
(4DD	(8.eeL	[4.f#	<
.	16ddL	.	.
8D	16cc#	.	[ >
.	16ddJJ	.	.
4DD	8aa')	8f#]	]
.	8raa	8re	.
8AA)	[8dd	8f#	.
=66	=66	=66	=66
(4DD	(8.ddL]	[4.g	<
.	16cc#L	.	.
8E	16b#	.	>
.	16cc#JJ	.	.
4DD	8aa')	8g]	.
.	8raa	8rg	.
8AA)	8cc#'	8g	.
=67	=67	=67	=67
4DD	8dd'	8f#	.
.	8r	4ryy	.
8r	(8dd/	.	.
4r	4a	4ryy	.
8r	8f#)	8ryy	.
*	*v	*v	*
=68	=68	=68
8DD'L<	(4d	p
8F#'J	.	.
8r	8dd	.
8EE'L<	4d	.
8G'J	.	.
8r	8cc#)	.
=69	=69	=69
8FF#'L<	(4d	.
8A'J	.	.
8r	8ccn	.
8GG'L	4d	.
8B'J	.	.
8r	8b)	.
=70	=70	=70
8Cn'L	(4e	.
8cn'J	.	.
8r	8a	.
8C#'L	4e	.
8B-'J	.	.
8r	8g)	.
=71	=71	=71
8D'L	(4f#	.
8A'J	.	.
8r	8a)	.
4r	8dL	.
.	8dd	.
8r	8ddJ	.
=72	=72	=72
!!!ONB: Need to re-arrange the voicings here
*	*^	*
8D'	(4dd	8r	.
8r	.	8f#	.
8r	8ddd	4r	.
8E'	4dd	.	.
8r	.	8g	.
8r	8ccc#X)	8r	.
=73	=73	=73	=73
8F#'	(4dd	8r	.
8r	.	8a	.
8r	8cccn	4r	.
8G'	4dd	.	.
8r	.	8b	.
8r	8bb)	8r	.
=74	=74	=74	=74
8Cn'	(4ee	8r	.
8r	.	8ccn	.
8r	8aa	4r	.
8D'	4cc	.	.
8r	.	8a	.
8r	8ff#)	8r	.
*	*v	*v	*
=75	=75	=75
8G'L	(>4b/	<
8g>J	.	.
8r	8gg/	.
8G'L	4ffn/	[
8b>J	.	.
8r	8ddd/)	.
=76	=76	=76
*	*^	*
8Cn'	(4ee	8r	>
8r	.	8ccn	.
8r	8cccn	4r	.
8D'	4cc	.	.
8r	.	8f#	.
8r	8aa)	8r	.
=77	=77	=77	=77
8G'	(4b	8r	<
8r	.	8g	.
8r	8gg	4r	.
8G'	4ffn	.	.
8r	.	8b	.
8r	8ddd)	8r	.
=78	=78	=78	=78
8Cn'	(4ee	8r	>
8r	.	8ccn	.
8r	8cccn	4r	.
8D'	4cc	.	.
8r	.	8f#	.
8r	8aa)	8r	.
*clefG2	*	*	*
=79	=79	=79	=79
(8gL<	([4.gg	(8bL	pp
8a	.	8ccn	.
8bJ)	.	8ddJ)	.
[4.ccn	8ggL]	[4.ee	.
.	8ff#	.	.
.	8gg#J)	.	.
=80	=80	=80	=80
!!!ONB: missing a slur in the source edition?
(8ccL]	([4.aa	8eeL]	.
8b	.	8dd	.
8cc#J)	.	8eeJ	.
[4.dd	8aaL]	[4.ff#	.
.	8gg#	.	.
.	8aa#J)	.	.
=81	=81	=81	=81
(8ddL]	([4.bb	(8ff#L]	.
8cc#X	.	8ee	.
8dd#J)	.	8ff#J)	.
(4ee	8bbL]	4ggn	.
.	8cccn	.	.
8ddn	[8bbJ)	8ff#	.
=82	=82	=82	=82
4ccn	8bbL]	4ee	.
.	8aa	.	.
8b	[8gg#J	8dd	.
4cc	8gg#L]	4ee	.
.	8aa	.	.
8cc#)	8ggnJ	8ee	.
=83	=83	=83	=83
(8dL	(8ff#L	[4.dd	.
8e	8gg	.	.
8f#J)	8aaJ)	.	.
[4.g	[4.bb	8ddL]	.
.	.	8cc#X	.
.	.	8dd#J	.
=84	=84	=84	=84
(8gL]	(8bbL]	[4.ee	.
8f#	8aa	.	.
8g#J)	8bbJ	.	.
[4.a	[4.ccc#)	8eeL]	.
.	.	8dd#	.
.	.	8ee#J	.
=85	=85	=85	=85
(8aL]	(8ccc#L]	[4.ff#	.
8g#	8bb	.	.
8a#J	8ccc#J	.	.
4b/)	4ddd)	(8ff#]	.
.	.	4ffn	.
(8an	[8ddd	.	.
=86	=86	=86	=86
8g#L	8ddd]	4ee	.
8a	[4cccn	.	.
8gnJ	.	8ee-)	.
8f#XL	(8cccL]	8ddL	.
8d	8ddd	8ff#X	.
8ccnJ)	8aaJ)	8ff#J	.
*clefF4	*	*	*
=87	=87	=87	=87
[4.G	8gg 8bb	(8bL	.
.	8raa	8fn	.
.	8raa	8d#J)	.
8GL]	8raa	[4.e	.
8F#X	(8ddnL	.	.
8G#J	8bJ	.	.
=88	=88	=88	=88
([4.A	[4.ccn)	8eL]	.
.	.	8g	.
.	.	8e#J	.
8AL]	8ccL]	[4.f#X	.
8G#	(8een	.	.
8A#J)	8cc#J	.	.
=89	=89	=89	=89
([4.B	[4.dd)	8f#L]	.
.	.	8a	.
.	.	8f#J	.
8BL]	(8ddL]	[4.g	.
8An	8ffn	.	.
8BJ)	8dd#J)	.	.
=90	=90	=90	=90
(8cnL	(8eeL	8gL]	.
8B	8ccn	8a	.
8cJ	8bJ	8gJ	.
8dL	8aL	8f#XL	.
8e	8ddn	8g	.
8f#J)	8ccJ)	8aJ	.
*	*v	*v	*
=91	=91	=91
*^	*	*
8G (8B-L	2.G	[4.g/ [>4.b-/ [4.gg/	<
8A 8cn	.	.	.
8B- 8dJ	.	.	.
[4.c [4.e-)	.	(8g] 8b-] 8ggL>]	.
.	.	8f# 8a 8ff#	.
.	.	8g) 8b- 8ggJ	.
=92	=92	=92	=92
8c] (8e-L]	2.G	[4.a/ [>4.ccn/ [4.aa/	.
8Bn 8d	.	.	.
8cny 8e-J)	.	.	.
[4.d [4.fn	.	(8a] 8cc] 8aaL>]	.
.	.	8g 8bn 8gg	.
.	.	8a) 8cc 8aaJ	.
=93	=93	=93	=93
8d] (8fL]	2.G	[4.b/ [>4.dd/ [4.bb/	.
8cn 8e-	.	.	.
8d 8fnJ)	.	.	.
4e- 4g	.	8b] 8dd] 8bbL>]	.
.	.	8ccn 8ee- 8cccn	.
8d 8g	.	8b- 8dd [8bb-J	.
=94	=94	=94	=94
*	*	*^	*
4c#X (4e	[4.A	(8bb-L]	4a 4cc#	.
.	.	8aa	.	.
8d 8fn	.	[8gg#J)	8bn 8dd	.
4c# 4e)	4A]	(8gg#L]	4a 4cc#	.
.	.	8aa	.	.
8ryy	8AAA 8AA	8ggnJ)	8cc# 8ee	.
*v	*v	*	*	*
=95	=95	=95	=95
[4.DD [4.D	8dd' 8ffn'	8a	ff
.	4ryy	(8FnL	.
.	.	8AJ)	.
(8DD] 8DL]	4.ryy	8d	.
8CC#X 8C#X	.	(8ffL	.
8DD 8DJ)	.	8ddJ	.
*	*v	*v	*
=96	=96	=96
[4.EE [4.E	8cc#')	.
.	(8c#L	.
.	8eJ	.
(8EE] 8EL]	8g')	.
8DD# 8D#	(8ggL	.
8EE 8EJ)	8eeJ	.
=97	=97	=97
[4.FFn [4.Fn	8dd')	.
.	(8dL	.
.	8fnJ	.
(8FF] 8FL]	8a')	.
8EE 8E	(8aaL	.
8FF 8FJ)	8ffnJ	.
=98	=98	=98
[4.GG [4.G	8ee-')	.
.	(8e-L	.
.	8gJ	.
(8GG] 8GL]	8b-')	.
8FF#X 8F#X	(8bb-L	.
8GG 8GJ)	8ggJ	.
=99	=99	=99
[4.AA/ [4.A/	8ff#X')	.
.	(8f#L	.
.	8aJ	.
(<8AA] 8AL>]	8ccn')	.
8GG# 8G#	(8cccnL	.
8AA 8AJ)	8aaJ)	.
=100	=100	=100
(8BB- 8B-L>	(8ggL	.
8AA 8A	8ddd	.
8BB-) 8B-J	8ggJ)	.
(8BBn 8BnL>	(8gg#L	.
8AA# 8A#	8ddd	.
8BB 8BJ)	8gg#J)	.
=101	=101	=101
*^	*	*
[<2.AA [2.An	4.AAn	16cc#XLL	sf
.	.	16ee	.
.	.	16aa	.
.	.	16ccc#XJJ	.
.	.	16aLL	.
.	.	16aaJJ	.
.	8BBL	16bLL	.
.	.	16bb	.
.	8C#	16cc#	.
.	.	16ccc#	.
.	8DJ	16dd	.
.	.	16dddJJ	.
=102	=102	=102	=102
2.AA] 2.A]	8EL	16eeLL	.
.	.	16eee	.
.	8D	16dd	.
.	.	16ddd	.
.	8C#J	16cc#	.
.	.	16ccc#JJ	.
.	8FnL	16ffnLL	.
.	.	16fffn	.
.	8E	16ee	.
.	.	16eee	.
.	8DJ	16dd	.
.	.	16dddJJ	.
=103	=103	=103	=103
[<2.AA [2.A	4.AA	16eeLL	sf
.	.	16aa	.
.	.	16ccc#	.
.	.	16eee	.
.	.	16a	.
.	.	16aaJJ	.
.	8BBL	16bLL	.
.	.	16bb	.
.	8C#	16cc#	.
.	.	16ccc#	.
.	8DJ	16dd	.
.	.	16dddJJ	.
=104	=104	=104	=104
2.AA] 2.A]	8EL	16eeLL	.
.	.	16eee	.
.	8D	16dd	.
.	.	16ddd	.
.	8C#J	16cc#	.
.	.	16ccc#JJ	.
.	8FnL	16ffnLL	.
.	.	16fffn	.
.	8E	16ee	.
.	.	16eee	.
.	8DJ	16dd	.
.	.	16dddJJ	.
=105	=105	=105	=105
[<2.AAA [2.AA	4.AAA	16eeLL	sf
.	.	16aa	.
.	.	16ccc#	.
.	.	16eeeJJ	.
.	.	16aLL	.
.	.	16aaJJ	.
.	8BBBL	16bLL	.
.	.	16bb	.
.	8CC#	16cc#	.
.	.	16ccc#	.
.	8DDJ	16dd	.
.	.	16dddJJ	.
=106	=106	=106	=106
2.AAA] 2.AA]	8EEL	16eeLL	.
.	.	16eee	.
.	8DD	16dd	.
.	.	16ddd	.
.	8CC#J	16cc#	.
.	.	16ccc#JJ	.
.	8FFnL	16ffnLL	.
.	.	16fffn	.
.	8EE	16ee	.
.	.	16eee	.
.	8DDJ	16dd	.
.	.	16dddJJ	.
=107	=107	=107	=107
2.AAAz 2.AAz	8EEL	16eeLL	ff
.	.	16eee	.
.	8DD	16dd	.
.	.	16ddd	.
.	8CC#J	16cc#	.
.	.	16ccc#JJ	.
.	8FFnL	16ffnLL	.
.	.	16fffn	.
.	8EE	16ee	.
.	.	16eee	.
.	8DDJ	16dd	.
.	.	16dddJJ	.
=108	=108	=108	=108
2.AAAz 2.AAz	8EEL	16eeLL	.
.	.	16eee	.
.	8DD	16dd	.
.	.	16ddd	.
.	8CC#J	16cc#	.
.	.	16ccc#JJ	.
.	8FFnL	16ffnLL	.
.	.	16fffn	.
.	8EE	16ee	.
.	.	16eee	.
.	8DDJ	16dd	.
.	.	16dddJJ	.
*v	*v	*	*
=109	=109	=109
[2.AAA [2.AA	16ccc#LL	ff
.	16eee	.
.	16ddd	.
.	16ccc#	.
.	16bb	.
.	16aaJJ	.
.	16gg#LL	.
.	16ff#X	.
.	16ee	.
.	16dd	.
.	16cc#	.
.	16bJJ	.
=110	=110	=110
2.AAA_ 2.AA_	16aLL	.
.	16ee	.
.	16dd	.
.	16cc#	.
.	16b	.
.	16aJJ	.
.	16g#LL	.
.	16f#	.
.	16e	.
.	16d	.
.	16c#	.
.	16BJJ	.
=111	=111	=111
*^	*	*
4.ryy	2.AAA/] 2.AA/]	16ALL	.
.	.	16e	.
.	.	16d	.
.	.	16c#	.
.	.	16B	.
.	.	16AJJ	.
16G#LL	.	4.ryy	.
16F#	.	.	.
16E	.	.	.
16D	.	.	.
16C#	.	.	.
16BBJJ	.	.	.
*v	*v	*	*
=112	=112	=112
!LO:TX:i:t=m.g.	!	!
16AALL	8r	.
16E	.	.
16D	8c#'L	.
16C#	.	.
16BB	8e'J	.
16AAJJ	.	.
16GG#LL	8A' 8a'L	.
16FF#	.	.
16EE	8c#' 8cc#'	.
16DD	.	.
16CC#	8e' 8ee'J	.
16BBBJJ	.	.
=113	=113	=113
[4.AAA	[4.a [4.aa	ff
4AAA;]	4a;] 4aa;]	.
(>8AA	8r	p
=114	=114	=114
4DD	2.r	.
8AA	.	.
4DD	.	.
8BB	.	.
=115	=115	=115
4DD	4r	.
8C#	8r	.
4DD	4r	.
8D/)	(>[>8aa/	p
=116	=116	=116
*	*^	*
(>4DD	8aaL]	4.a	.
.	8gg	.	.
8FF#	8ff#J	.	.
4DD	8eeL	4.b	.
.	8ff#	.	.
8GG	8ddJ)	.	.
=117	=117	=117	=117
4DD	(8bL	4g	.
.	8ee)	.	.
8AA	8cc#'J	8g	.
4DD	4dd'	4f#	.
8AA)	8r	8r	.
*	*v	*v	*
=118	=118	=118
(>4DD	16r	.
.	(16ddLL	.
.	16ff#	.
.	16dd	.
8AA	16a	.
.	16f#JJ)	.
4DD	(4a	.
8BB	8g)	.
=119	=119	=119
4DD	16r	.
.	(16ddd#LL	.
.	16eee	.
.	16ccc#	.
8C#	16gg	.
.	16eeJJ)	.
4DD	(4gg	.
8D/)	8ff#)	.
=120	=120	=120
*	*^	*
(4DD	(8aaL	4.a	.
.	8gg	.	.
8FF#	8ff#J	.	.
4DD	8eeL	4.b	.
.	8ff#	.	.
8GG	8ddJ)	.	.
=121	=121	=121	=121
4DD	(8bL	4g	.
.	8ee)	.	.
8AA	8cc#'J	8g	.
4DD	8dd'	8f#	.
.	8raa	8rg	.
8D)	[8dd	8f#	.
=122	=122	=122	=122
(4DD	(4dd]	[4.g	<
8E	8cc#	.	[ >
4DD	8aa')	8g]	.
.	8r	8r	]
8AA	8cc#	8g	.
=123	=123	=123	=123
4DD	(4ee	[4.f#	<
8D	8dd	.	[ >
4DD	8aa')	8f#]	.
.	8r	8r	]
8AA)	[8dd	8f#	.
=124	=124	=124	=124
(4DD	(4dd]	[4.g	<
8E	8cc#	.	[ >
4DD	8aa')	8g]	.
.	8raa	8rg	]
8AA	8cc#	8g	.
=125	=125	=125	=125
4DD	4dd	4f#	.
8D	8r	8r	.
4DD	4r	4r	.
8AA)	[8dd	8f#	.
=126	=126	=126	=126
(>4DD	(8.ddL]	[4.g	<
.	16cc#L	.	.
8E	16b#	.	[ >
.	16cc#JJ	.	.
4DD	8aa')	8g]	.
.	8r	8r	]
8AA	8cc#	8g	.
=127	=127	=127	=127
4DD	8.eeL	[4.f#	<
.	16ddL	.	.
8D	16cc#	.	[ >
.	16ddJJ	.	.
4DD	8aa'	8f#]	.
.	8raa	8re	]
8AA)	8dd	8f#	.
=128	=128	=128	=128
(4DD	(8.ddL	[4.g	<
.	16cc#L	.	.
8E	16b#	.	[ >
.	16cc#JJ	.	.
4DD	8aa')	8g]	.
.	8raa	8rg	]
8AA	8cc#	8g	.
=129	=129	=129	=129
4DD	4dd	4f#	.
!	!	!LO:TX:i:t=molto legato	!
8D/	8r	8r	.
4AA	4r	4.ryy	.
8FF#)	(16dLL	.	.
.	16AJJ)	.	.
*	*v	*v	*
=130	=130	=130
(16DDLL<	8r	.
16FF#	.	.
16AA	(16F#LL	.
16DJJ)	16A	.
8r	16d	.
.	16f#JJ)	.
(16C#LL	8r	.
16E	.	.
16A	(16eLL	.
16c#JJ)	16a	.
8r	16cc#	.
.	16eeJJ)	.
=131	=131	=131
(16BBLL	8r	.
16D	.	.
16F#	(16dLL	.
16BJJ)	16f#	.
8r	16b	.
.	16ddJJ)	.
(16ALL	8r	.
16c#	.	.
16f#	(16cc#LL	.
16aJJ)	16ff#	.
8r	16aa	.
.	16ccc#JJ)	.
=132	=132	=132
(16GGLL<	8r	.
16BB	.	.
16D	(16BLL	.
16GJJ)	16d	.
8r	16g	.
.	16bJJ)	.
(16F#LL	8r	.
16A	.	.
16d	(16aLL	.
16f#JJ)	16dd	.
8r	16ff#	.
.	16aaJJ)	.
=133	=133	=133
8E' 8e'L	16cc#' 16gg'LL	.
.	16a	.
8E' 8e'	16cc#' 16gg'	.
.	16a	.
8D' 8d'J	16dd' 16ff#'	.
.	16aJJ	.
4AA' 4A'	16cc# (16eeLL	.
.	16dd	.
.	16cc#	.
.	16b	.
8r	16a	.
.	16gJJ)	.
=134	=134	=134
(<16DDLL<	8r	.
16FF#	.	.
16AA	(>16F#<LL	.
16DJJ)	16A<	.
8r	16d	.
.	16f#JJ)	<
!	!LO:TX:i:t=cresc.	!
(16C#LL	8r	.
16E	.	.
16A#	(16eLL	.
16c#JJ)	16a#	.
8r	16cc#	.
.	16eeJJ)	.
=135	=135	=135
*	*^	*
(16BBLL	8r	4.ryy	.
16D	.	.	.
16F#	(16dLL	.	.
16BJJ)	16f#	.	.
8r	16b	.	.
.	16ddJJ)	.	.
4.ryy	8r	(16ALL	.
.	.	16cn	.
.	(16ccnLL	16f#	.
.	16ff#	16aJJ)	.
.	16aa	8re	.
.	16cccnJJ)	.	.
*	*v	*v	*
=136	=136	=136
(16GGLL<	8r	.
16BB	.	.
16D)	(16BLL	.
16GJJ	16d	.
8r	16g	.
.	16bJJ)	.
(16F#LL	8r	.
16A	.	.
16d#	(16dd#LL	.
16f#JJ)	16aa	.
8r	16bb	.
.	16ddd#JJ)	.
=137	=137	=137
(16GGLL<	8r	.
16BB	.	.
16E	(16eLL	.
16GJJ)	16g	.
8r	16b	.
.	16eeJJ)	.
(16G#LL	8r	.
16B	.	.
16e	(16ddnLL	.
16g#JJ)	16ee	.
8r	16bb	.
.	16dddnJJ)	.
=138	=138	=138
(16AALL	8r	f
16C#	.	.
16E	(16c#LL	.
16AJJ)	16e	.
8r	16a	.
.	16cc#JJ)	.
(16ALL	8r	.
16c#	.	.
16e	(16cc#LL	.
16aJJ)	16ee	.
8r	16gg	.
.	16ccc#JJ)	.
=139	=139	=139
(16AALL	8r	.
16D	.	.
16F#	(16dLL	.
16AJJ)	16f#	.
8r	16a	.
.	16ddJJ)	.
(16ALL	8r	.
16d	.	.
16fn	(16ddLL	.
16aJJ)	16gg#	.
8r	16bb	.
.	16dddJJ)	.
=140	=140	=140
*^	*	*
8r	(16AAALL	4.ryy	.
.	16CC#	.	.
(16C#LL	16EE	.	.
16E	16AAJJ)	.	.
16A	8r	.	.
16c#JJ)	.	.	.
4.ryy	(16AALL	8r	.
.	16C#	.	.
.	16E	(16c#LL	.
.	16AJJ)	16e	.
.	8r	16gn	.
.	.	16cc#JJ)	.
=141	=141	=141	=141
8rA	(16AAALL	4.ryy	.
.	16DD	.	.
(16DLL	16FF#	.	.
16F#	16AAJJ)	.	.
16A	8ryy	.	.
16dJJ)	.	.	.
4.ryy	(16AALL	8r	.
.	16D	.	.
.	16Fn	(16dLL	.
.	16AJJ)	16g#	.
.	8rD	16b	.
.	.	16ddJJ)	.
*v	*v	*	*
=142	=142	=142
(16AAALL	8r	.
16CC#	.	.
16EE	(16c#LL	.
16AAJJ)	16e	.
8r	16a	.
.	16cc#JJ)	.
(16AAALL	8r	.
16CC#	.	.
16EE	(16ALL	.
16AAJJ)	16c#	.
8r	16e	.
.	16aJJ)	.
=143	=143	=143
*^	*	*
4.ryy	(16AAALL<	8r	.
.	16CC#	.	.
.	16EE	(16ELL	.
.	16AAJJ)	16A	.
.	8rGG	16c#	.
.	.	16eJJ)	.
8rF	(16AAALL	4.ryy	.
.	16CC#	.	.
(16C#LL	16EE	.	.
16E	16AAJJ)	.	.
16A	8rGG	.	.
16c#JJ)	.	.	.
*v	*v	*	*
=144	=144	=144
[4.AAAz>	4r	.
.	8r	.
4AAA]	4r	.
8r	(8ff#/	p
=145	=145	=145
*	*^	*
2.r	4dd	4re	.
.	8aa	8re	.
.	4ff#)	4re	.
.	(8dd	(8f#	.
=146	=146	=146	=146
4r	4a	4d	.
8r	8ff#	8a	.
4r	4dd)	4f#)	.
(8F#	[8a	(8d	.
=147	=147	=147	=147
4D	4.a_	4f#	.
8A	.	8d	.
4F#	4a]	4A)	.
8D	[8a	(8d 8f#	.
=148	=148	=148	=148
4A	4.a_	4c# 4e	.
8AA	.	8e 8g	.
4D)	8f# 8a]	8d)	.
.	16rff	8re	.
.	16ff#LL	.	p
8r	16ee#	8re	.
.	16ff#JJ	.	.
=149	=149	=149	=149
2.r	8dd'	4rc	.
.	16rff	.	.
.	(16aa\LL	.	.
.	16gg#	8rc	.
.	16aaJJ)	.	.
.	8ff#'\	8rc	.
.	8rff	16re	.
.	.	(16f#LL	p
.	8dd	16e#	.
.	.	16f#JJ)	.
=150	=150	=150	=150
4r	8a'	8d'	.
.	8r	16r	.
.	.	(16aLL	.
8r	8ff#	16g#	.
.	.	16aJJ)	.
8r	8dd'	8f#'	.
16r	8r	8r	.
(16F#LL	.	.	.
16E#	8a'	8d	.
16F#JJ)	.	.	.
=151	=151	=151	=151
8D'	[4.a	(4f#	.
16r	.	.	.
(16ALL	.	.	.
16G#	.	8d	.
16AJJ)	.	.	.
8F#'	4a]	4A)	.
8r	.	.	.
8D	[8a	8d 8f#	.
=152	=152	=152	=152
(4A	4.a_	4c# 4e	.
8AA	.	8e 8g	.
4D')	4a']	4d 4f#	.
(8FF#	(8dd	(8f# 8a	sf
=153	=153	=153	=153
4AA	4a 4cc#	4e	.
8AAA	8a 8ee	8g	.
4DD)	4dd')	4f#) 4a	.
8F#	[8a	8d 8f#	.
=154	=154	=154	=154
(4A	4.a_	4c# 4e	.
8AA	.	8e 8g	.
4D')	4a]	4d 4f#	.
(>8FF#	(8dd	8f# 8a	sf
=155	=155	=155	=155
4AA	4a 4cc#	4e	.
8AAA	8a 8ee	8g	.
4DD')	4a' 4dd')	4f#	.
(>8DD	8dd (8ff#	8a	sf
=156	=156	=156	=156
4AA	4cc# 4ee	4a	.
8AAA	8ee 8gg)	8a	.
4DD')	4dd' 4ff#'	4a	.
(>8DD	8aa (8ddd	8ff#	sf
=157	=157	=157	=157
4AA	4aa 4ccc#	4ee	.
8AAA	8aa 8eee	8gg	.
4DD')	4aa' 4ddd')	4ff#	.
8BBB 8BB	8aa 8ddd#	8ff#	sf
=158	=158	=158	=158
2.GGG 2.GG	2.eee	2.gg 2.bb	f
=159	=159	=159	=159
2.AAA 2.AA	2.ccc#t	2.gg	sf
.	(<16bbqLL	.	.
.	16cccqJJ)	.	.
*	*v	*v	*
=160	=160	=160
*^	*	*
[2.Dz>	4.DD 4.D	16ddLL	.
.	.	16ff#	.
.	.	16aa	.
.	.	16dddJJ	.
.	.	16ddLL	.
.	.	16dddJJ	.
.	8C#L	16cc#LL	.
.	.	16ccc#	.
.	8BB	16b	.
.	.	16bb	.
.	8AAJ	16a	.
.	.	16aaJJ	.
=161	=161	=161	=161
2.D]	8BBL	16bLL	.
.	.	16bb	.
.	8AA	16a	.
.	.	16aa	.
.	8GGJ	16g	.
.	.	16ggJJ	.
.	8FF#L	16f#LL	.
.	.	16ff#	.
.	8GG	16g	.
.	.	16gg	.
.	8AAJ	16a	.
.	.	16aaJJ	.
=162	=162	=162	=162
[2.Dz>	4.DD 4.D	16ddLL	.
.	.	16ff#	.
.	.	16aa	.
.	.	16dddJJ	.
.	.	16ddLL	.
.	.	16dddJJ	.
.	8C#L	16cc#LL	.
.	.	16ccc#	.
.	8BB	16b	.
.	.	16bb	.
.	8AAJ	16a	.
.	.	16aaJJ	.
=163	=163	=163	=163
2.D]	8BBL	16bLL	.
.	.	16bb	.
.	8AA	16a	.
.	.	16aa	.
.	8GGJ	16g	.
.	.	16ggJJ	.
.	8FF#L	16f#LL	.
.	.	16ff#	.
.	8GG	16g	.
.	.	16gg	.
.	8AAJ	16a	.
.	.	16aaJJ	.
=164	=164	=164	=164
[2.Dz>	4.DD 4.D	16ddLL	.
.	.	16ff#	.
.	.	16aa	.
.	.	16ddd	.
.	.	16dd	.
.	.	16dddJJ	.
.	8CnL	16ccnLL	.
.	.	16cccn	.
.	8BB	16b	.
.	.	16bb	.
.	8AAJ	16a	.
.	.	16aaJJ	.
=165	=165	=165	=165
4.D_	8GGL	16gLL	.
.	.	16gg	.
.	8FF#	16f#	.
.	.	16ff#	.
.	8EEJ	16e	.
.	.	16eeJJ	.
8DL]	8DDL	16dLL	.
.	.	16dd	.
8Cn	8CCn	16cn	.
.	.	16ccn	.
8BBJ	8BBBJ	16B	.
.	.	16bJJ	.
*v	*v	*	*
=166	=166	=166
4CCn 4Cn	4cn 4ccn	f
8r	8r	.
4r	4r	.
8r	8r	.
=167	=167	=167
4CC#X 4C#X	4c#X 4cc#X	f
8r	8r	.
4r	4r	.
8r	8r	.
=168	=168	=168
4r	2.r	.
8r	.	.
4r	.	.
(8D/	.	pp
=169	=169	=169
*	*^	*
4GG	8r	8r	.
.	4dd'	4b	pp
8D	.	.	.
4GG	8r	8r	.
.	4ccn'	4b	.
8E)	.	.	.
=170	=170	=170	=170
(4GG	8r	8r	.
.	4ccn'	4a	.
8F#	.	.	.
4GG	8r	8r	.
.	4b'	4g	.
8G)	.	.	.
*	*v	*v	*
=171	=171	=171
(4GG	8r	.
.	4gg' 4bb'	.
8BB	.	.
4GG	8r	.
.	4gg' 4aa'	.
8Cn	.	.
=172	=172	=172
4GG	8r	.
.	4ff#' 4aa'	.
8D	.	.
4GG	8r	.
.	4gg'	.
8G)	.	.
=173	=173	=173
*	*^	*
4GG	8r	8r	.
.	4dd'	4b	.
(8D	.	.	.
4GG	8r	8r	.
.	4ccn'	4b	.
8E	.	.	.
=174	=174	=174	=174
4GG	8r	8r	.
.	4ccn'	4a	.
8F#	.	.	.
4GG	8r	8r	.
.	4b'	4g	.
8G)	.	.	.
*	*v	*v	*
=175	=175	=175
!	!LO:TX:i:t=cresc.	!
(4GG#	8r	.
.	4d 4fn 4b	<
8G#	.	.
4AA	8r	.
.	4d' 4f' 4a'	.
8A	.	.
=176	=176	=176
4BB-	8r	.
.	4d' 4fn' 4g#'	.
8B-	.	.
4BBn	8r	.
.	4d' 4g#'	.
8Bn	.	.
=177	=177	=177
4AA	4c# 4a	p
8A)	(>8c# 8a	.
!	!LO:TX:i:t=cresc.	!
(>4AA	4d 4f#	<
8A	8d# 8b	.
=178	=178	=178
4AA	4e 4g	.
8A	8e# 8cc#	.
4AA	4f# 4a	.
8A	8f# 8dd	.
=179	=179	=179
4AA	4g 4b	.
8A	8g# 8ee	.
4AA	4a 4cc#	.
8A	8a# 8ff#	.
=180	=180	=180
4AA	4b 4dd	.
8A	8b 8gg	.
4AA	4ccn 4ee	.
8A	8cc# 8aa	.
=181	=181	=181
4AA	4dd 4ff#	.
8A	8b 8gg	.
4AA	4ccn 4ee	.
8A	8cc# 8aa	.
=182	=182	=182
4AA	4dd 4ff#	.
8A	8b 8gg	.
4AA	4ccn 4ee	.
8A)	8cc# 8aa)	.
=183	=183	=183
8AAL<	8dd (8ff#L	f
8A	8b 8gg)	.
8AAJ	8cc# (8eeJ	.
8AL	8a 8ff#L)	.
8AA	8b (8dd	.
8AJ	8g 8eeJ)	.
=184	=184	=184
8AAAL	(8a 8cc#L	.
8AA	8f#) 8dd	.
8AAAJ	(8g 8bJ	.
8AAL	8e) 8cc#L	.
8AAA	(8f# 8a	.
8AAJ	8d) 8bJ	.
=185	=185	=185
8AAAL	(8e 8gL	.
8AA	8c#) 8a	.
8AAAJ	(8d 8f#J	.
8AAL	8B) 8gL	.
8AAA	(8c# 8e	.
8AAJ	8A) 8f#J	.
=186	=186	=186
8AAAL	(8B 8dL	.
8AA	8G) 8e	.
8AAAJ	(8A 8c#J	.
8AAL	8F#) 8dL	.
8AAA	(8G 8B	.
8AAJ	8E) 8c#J	.
=187	=187	=187
*^	*	*
8r	(16AAALL	4.ryy	ff
.	16CC#	.	.
16r	16EE	.	.
(16AALL	16GGJJ)	.	.
16C#	8r	.	.
16EJJ)	.	.	.
8G'	(16AALL	8ryy	.
.	16C#	.	.
4ryy	16E	16r	.
.	16GJJ)	(16ALL	.
.	8rD	16c#	.
.	.	16eJJ)	.
*v	*v	*	*
=188	=188	=188
2.r	8g'	.
.	8r	.
.	8r	.
.	4r	.
.	8r	.
=189	=189	=189
(16AALL	8r	p
16C#	.	.
16E	16r	.
16GJJ)	(16ALL	.
8r	16c#	.
.	16eJJ)	.
(16ALL	8g'	.
16c#	.	.
16e	16r	.
16gJJ)	(16aLL	.
8r	16cc#	.
.	16eeJJ)	.
=190	=190	=190
2.r	8gg	.
.	8r	.
.	8r	.
.	4r	.
!	!LO:TX:i:t=decresc.	!
.	8r	.
=191	=191	=191
(16ALL	8r	.
16c#	.	.
16e	16r	.
16gJJ)	(16aLL	>
8r	16cc#	.
.	16eeJJ)	.
4r	8gg'	.
.	8r	.
8r	8r	.
=192	=192	=192
(16ALL	8r	pp
16c#	.	.
16e	16r	.
16gJJ)	(16aLL	.
8r	16cc#	.
.	16eeJJ)	.
4r;	4gg;	.
!!!OMD: Pi&ugrave; All<sup>O</sup> quasi presto
8AA' 8A'	(16ggLL	p
.	16ff#JJ)	.
=193	=193	=193
!	!LO:TX:i:t=cresc.	!
4DD' 4D'	16ee#LL	<
.	16ff#	.
.	16gg	.
.	16ff#	.
8AA' 8A'	16ddd	.
.	16ff#JJ	.
4DD' 4D'	16aaLL	.
.	16gg	.
.	16ff#	.
.	16gg	.
8BB' 8B'	16ddd	.
.	16ggJJ	.
=194	=194	=194
4DD' 4D'	16aaLL	.
.	16gg	.
.	16ff#	.
.	16gg	.
8C#' 8c#'	16eee	.
.	16ggJJ	.
4DD' 4D'	16ggLL	.
.	16ff#	.
.	16ee#	.
.	16ff#	.
8D' 8d'	16ddd	.
.	16ff#JJ	.
=195	=195	=195
4DD' 4D'	16eenLL	.
.	16dd	.
.	16cc#	.
.	16dd	.
8FF#' 8F#'	16ddd	.
.	16ddJJ	.
4DD' 4D'	16cc#LL	.
.	16b	.
.	16a#	.
.	16b	.
8GG' 8G'	16bb	.
.	16bJJ	.
=196	=196	=196
4DD' 4D'	16anLL<	.
.	16g	.
.	16f#	.
.	16g	.
8AA' 8A'	16gg	.
.	16gJJ	.
4DD' 4D'	16f#LL	.
.	16a	.
.	16dd	.
.	16ff#	.
8D' 8d'	16aa	.
.	16ggJJ	.
=197	=197	=197
!	!LO:TX:i:t=sempre cresc.	!
4DD' 4D'	16ggLL	.
.	16ff#	.
.	16ee#	.
.	16ff#	.
8AA' 8A'	16ddd	.
.	16ff#JJ	.
4DD' 4D'	16aaLL	.
.	16gg	.
.	16ff#	.
.	16gg	.
8BB' 8B'	16ddd	.
.	16ggJJ	.
=198	=198	=198
4DD' 4D'	16aaLL	.
.	16gg	.
.	16ff#	.
.	16gg	.
8C#' 8c#'	16eee	.
.	16ggJJ	.
4DD' 4D'	16ggLL	.
.	16ff#	.
.	16ee#	.
.	16ff#	.
8D' 8d'	16ddd	.
.	16ff#JJ	.
=199	=199	=199
4DD 4D	16eenLL	f
.	16dd	.
.	16cc#	.
.	16dd	.
8FF# 8F#	16ddd	.
.	16ddJJ	.
4DD 4D	16cc#LL	.
.	16b	.
.	16a#	.
.	16b	.
8GG 8G	16bb	.
.	16bJJ	.
=200	=200	=200
4DD 4D	16anLL<	.
.	16g	.
.	16f#	.
.	16g	.
8AA 8A	16gg	.
.	16gJJ	.
4DD 4D	16f#LL	.
.	16a	.
.	16dd	.
.	16ff#	.
8D 8d	16aa	.
.	16ff#JJ	.
=201	=201	=201
4DD 4D	16eeLL	.
.	16dd	.
.	16cc#	.
.	16dd	.
8FF# 8F#	16ddd	.
.	16ddJJ	.
4DD 4D	16cc#LL	.
.	16b	.
.	16a#	.
.	16b	.
8GG 8G	16bb	.
.	16bJJ	.
=202	=202	=202
4DD 4D	16anLL<	.
.	16g	.
.	16f#	.
.	16g	.
8AA 8A	16gg	.
.	16gJJ	.
4DD 4D	16f#LL	.
.	16a	.
.	16dd	.
.	16ff#	.
8D 8d	16aa	.
.	16ff#JJ	.
=203	=203	=203
4DD 4D	16eeLL	sf
.	16dd	.
.	16cc#	.
.	16dd	.
8FF# 8F#	16ddd	.
.	16ddJJ	.
4DD 4D	16cc#LL	.
.	16b	.
.	16a#	.
.	16b	.
8GG 8G	16bb	.
.	16bJJ	.
=204	=204	=204
4DD 4D	16anLL<	.
.	16g	.
.	16f#	.
.	16g	.
8AA 8A	16gg	.
.	16gJJ	.
4DD 4D	16f#LL	.
.	16a	.
.	16dd	.
.	16ff#	.
8D 8d	16aa	.
.	16f#JJ	.
=205	=205	=205
4DD 4D	16anLL<	.
.	16g	.
.	16f#	.
.	16g	.
8AA 8A	16gg	.
.	16gJJ	.
4DD 4D	16f#LL	.
.	16a	.
.	16dd	.
.	16ff#	.
8D 8d	16aa	.
.	16f#JJ	.
=206	=206	=206
4DD 4D	16aLL	sf
.	16g	.
.	16cc#	.
.	16g	.
8AA 8A	16ee	.
.	16cc#JJ	.
4DD 4D	16ggLL	.
.	16ee	.
.	16ccc#	.
.	16gg	.
8AA 8A	16eee	.
.	16ccc#JJ	.
=207	=207	=207
4DD 4D	16dddLL	ff
.	16aa	.
.	16ff#	.
.	16ddd	.
8r	16aa	.
.	16ff#JJ	.
*clefG2	*	*
16dLL	16ddLL	.
16a	16aa	.
16f#	16ff#	.
16d	16dd	.
16A	16a	.
16f#JJ	16ff#JJ	.
*clefF4	*	*
=208	=208	=208
16dLL	16ddLL	.
16A	16a	.
16F#	16f#	.
16d	16dd	.
16A	16a	.
16F#JJ	16f#JJ	.
16DLL	16dLL	.
16A	16a	.
16F#	16f#	.
16D	16d	.
16AA	16A	.
16FF#JJ	16F#JJ	.
=209	=209	=209
*^	*	*
4D	4DD	4.ryy	.
8rCC	8rD	.	.
4A' 4e'	4.ryy	4g' 4cc#' 4gg'	ff
8r	.	8r	.
*v	*v	*	*
=210	=210	=210
4D' 4d'	4f#' 4dd' 4ff#'	.
8r	8r	.
4r	4r	.
==	==	==
*-	*-	*-
!!!RDF**kern: > = above
!!!RDF**kern: < = below
!!!ENC: Craig Stuart Sapp
!!!END: 2005/08/27/
!!!EED: Craig Stuart Sapp
!!!EEV: 2018/06/24/
